X: 12473
T: Farewell To Craigie Dhu
R: barndance
M: 4/4
K: Ddorian
|:DE|F4 ABcd|B2 G2 G2 DE|F3 D E3 C|CB,CE D2 DE|
F4 ABcd|B2 G2 G2 DE|F3 D E3 C|CB, G,4:|
|:Bc|d3 B c3 A|BcBG F3 D|E4 EDEG|E2 D4 Bc|
d3 B c3 A|BcBG F3 D|FGFD CB,CD|B,2 G,4:|

